X:1
T:The Leverette
R:hornpipe
M:4/4
L:1/8
K:D
(3ABc|:d2BA F2FE|DFED B,2B,B,|A,B,DE FBAF|FEED E2DE|
|(3FED dD cDBD|AFED B,2B,B,|A,B,DE FBAF|1 ~E2D2 D2 (3ABc:|2 ~E2D2 D3A|]
|:B2AB c3B|AFDF A3A|DEFA BcdB|c2A2 A3B|
|=cBAF G2AF|DFED B,2B,B,|A,B,DE FBAF|1 ~E2D2 D3A:|2 ~E2D2 D2 (3ABc|]